storage/app/icons/phosphoricons/light/align-center-horizontal-light.svg

<svg xmlns="http://www.w3.org/2000/svg" fill="currentColor" viewBox="0 0 256 256"><path d="M208 138h-74v-20h50a14 14 0 0 0 14-14V64a14 14 0 0 0-14-14h-50V32a6 6 0 0 0-12 0v18H72a14 14 0 0 0-14 14v40a14 14 0 0 0 14 14h50v20H48a14 14 0 0 0-14 14v40a14 14 0 0 0 14 14h74v18a6 6 0 0 0 12 0v-18h74a14 14 0 0 0 14-14v-40a14 14 0 0 0-14-14M70 104V64a2 2 0 0 1 2-2h112a2 2 0 0 1 2 2v40a2 2 0 0 1-2 2H72a2 2 0 0 1-2-2m140 88a2 2 0 0 1-2 2H48a2 2 0 0 1-2-2v-40a2 2 0 0 1 2-2h160a2 2 0 0 1 2 2Z"/></svg>

<svg xmlns="http://www.w3.org/2000/svg" viewBox="0 0 256 256" fill="currentColor"><path d="M208,138H134V118h50a14,14,0,0,0,14-14V64a14,14,0,0,0-14-14H134V32a6,6,0,0,0-12,0V50H72A14,14,0,0,0,58,64v40a14,14,0,0,0,14,14h50v20H48a14,14,0,0,0-14,14v40a14,14,0,0,0,14,14h74v18a6,6,0,0,0,12,0V206h74a14,14,0,0,0,14-14V152A14,14,0,0,0,208,138ZM70,104V64a2,2,0,0,1,2-2H184a2,2,0,0,1,2,2v40a2,2,0,0,1-2,2H72A2,2,0,0,1,70,104Zm140,88a2,2,0,0,1-2,2H48a2,2,0,0,1-2-2V152a2,2,0,0,1,2-2H208a2,2,0,0,1,2,2Z"/></svg>
